mimetypes/64/unknown.svg

<?xml version="1.0" encoding="UTF-8" standalone="no"?>
<!-- Created with Inkscape (http://www.inkscape.org/) -->

<svg
   xmlns:dc="http://purl.org/dc/elements/1.1/"
   xmlns:cc="http://creativecommons.org/ns#"
   xmlns:rdf="http://www.w3.org/1999/02/22-rdf-syntax-ns#"
   xmlns:svg="http://www.w3.org/2000/svg"
   xmlns="http://www.w3.org/2000/svg"
   xmlns:xlink="http://www.w3.org/1999/xlink"
   xmlns:sodipodi="http://sodipodi.sourceforge.net/DTD/sodipodi-0.dtd"
   xmlns:inkscape="http://www.inkscape.org/namespaces/inkscape"
   version="1.1"
   width="64"
   height="64"
   id="svg13094"
   inkscape:version="0.92.2 5c3e80d, 2017-08-06"
   sodipodi:docname="unknown.svg">
  <sodipodi:namedview
     pagecolor="#ffffff"
     bordercolor="#666666"
     borderopacity="1"
     objecttolerance="10"
     gridtolerance="10"
     guidetolerance="10"
     inkscape:pageopacity="0"
     inkscape:pageshadow="2"
     inkscape:window-width="1920"
     inkscape:window-height="1022"
     id="namedview91"
     showgrid="false"
     inkscape:zoom="10.429825"
     inkscape:cx="38.047989"
     inkscape:cy="34.486195"
     inkscape:window-x="-5"
     inkscape:window-y="23"
     inkscape:window-maximized="1"
     inkscape:current-layer="svg13094"
     inkscape:snap-bbox="true"
     inkscape:bbox-paths="true"
     inkscape:bbox-nodes="true"
     inkscape:snap-bbox-edge-midpoints="true"
     inkscape:snap-bbox-midpoints="true"
     inkscape:object-paths="true"
     inkscape:snap-intersection-paths="true"
     inkscape:object-nodes="true"
     inkscape:snap-smooth-nodes="true"
     inkscape:snap-midpoints="true"
     inkscape:snap-object-midpoints="true"
     inkscape:snap-center="true">
    <inkscape:grid
       type="xygrid"
       id="grid3074" />
  </sodipodi:namedview>
  <defs
     id="defs11">
    <linearGradient
       inkscape:collect="always"
       id="linearGradient909">
      <stop
         style="stop-color:#1b4757;stop-opacity:0.06801736"
         offset="0"
         id="stop905" />
      <stop
         style="stop-color:#0a4f68;stop-opacity:0.01013025"
         offset="1"
         id="stop907" />
    </linearGradient>
    <linearGradient
       inkscape:collect="always"
       id="linearGradient885">
      <stop
         style="stop-color:#ffffff;stop-opacity:0.00655499"
         offset="0"
         id="stop881" />
      <stop
         id="stop889"
         offset="0.80048281"
         style="stop-color:#fefefe;stop-opacity:0.45447925" />
      <stop
         style="stop-color:#feffff;stop-opacity:1"
         offset="1"
         id="stop883" />
    </linearGradient>
    <linearGradient
       inkscape:collect="always"
       id="linearGradient832">
      <stop
         style="stop-color:#222e33;stop-opacity:0.28509405"
         offset="0"
         id="stop828" />
      <stop
         style="stop-color:#222e33;stop-opacity:0.12156863"
         offset="1"
         id="stop830" />
    </linearGradient>
    <linearGradient
       x1="48.917568"
       y1="46.213669"
       x2="32.669781"
       y2="24"
       id="linearGradient4259-6-1"
       gradientUnits="userSpaceOnUse">
      <stop
         id="stop3988-6-1"
         style="stop-color:#ffffff;stop-opacity:0.52975047"
         offset="0" />
      <stop
         id="stop3990-9-2"
         style="stop-color:#ffffff;stop-opacity:0"
         offset="1" />
    </linearGradient>
    <radialGradient
       inkscape:collect="always"
       xlink:href="#linearGradient832"
       id="radialGradient834"
       cx="46.869087"
       cy="36.887913"
       fx="46.869087"
       fy="36.887913"
       r="14.161133"
       gradientTransform="matrix(1.4400868,0,0,2.1184746,-19.190752,-35.791186)"
       gradientUnits="userSpaceOnUse" />
    <linearGradient
       gradientTransform="translate(-34,-33)"
       inkscape:collect="always"
       xlink:href="#linearGradient878"
       id="linearGradient880"
       x1="82.743576"
       y1="79.42112"
       x2="71"
       y2="69"
       gradientUnits="userSpaceOnUse" />
    <linearGradient
       inkscape:collect="always"
       id="linearGradient878">
      <stop
         style="stop-color:#c1cad0;stop-opacity:1"
         offset="0"
         id="stop874" />
      <stop
         id="stop882"
         offset="0.25230676"
         style="stop-color:#bcc7cc;stop-opacity:1" />
      <stop
         style="stop-color:#d1dbe2;stop-opacity:1"
         offset="1"
         id="stop876" />
    </linearGradient>
    <radialGradient
       inkscape:collect="always"
       xlink:href="#linearGradient909"
       id="radialGradient911"
       cx="20.339514"
       cy="28.540977"
       fx="20.339514"
       fy="28.540977"
       r="30"
       gradientTransform="matrix(1.1807908,0,0,1.2201507,-5.4237236,-7.2649718)"
       gradientUnits="userSpaceOnUse" />
    <linearGradient
       inkscape:collect="always"
       xlink:href="#linearGradient885"
       id="linearGradient881"
       gradientUnits="userSpaceOnUse"
       x1="37"
       y1="36"
       x2="48.959652"
       y2="46.163666" />
  </defs>
  <metadata
     id="metadata13099">
    <rdf:RDF>
      <cc:Work
         rdf:about="">
        <dc:format>image/svg+xml</dc:format>
        <dc:type
           rdf:resource="http://purl.org/dc/dcmitype/StillImage" />
        <dc:title />
      </cc:Work>
    </rdf:RDF>
  </metadata>
  <path
     inkscape:connector-curvature="0"
     d="M 4,0 64,0 64,62 4,62 z"
     id="path3960"
     style="fill:#c8d4dc;fill-opacity:1;fill-rule:nonzero" />
  <path
     inkscape:connector-curvature="0"
     style="fill:url(#radialGradient834);fill-opacity:1;fill-rule:nonzero"
     d="M 60,2 60,33 35.677734,62 64,62 64,37 64,6 60,2 z"
     id="path3900" />
  <path
     inkscape:connector-curvature="0"
     d="M 0,2 60,2 60,33 34,64 0,64 z"
     id="path4257"
     style="fill:url(#linearGradient4259-6-1);fill-rule:nonzero" />
  <path
     style="color:#000000;display:inline;overflow:visible;visibility:visible;fill:#edf0f2;fill-opacity:1;fill-rule:nonzero;stroke:none;stroke-width:1;marker:none;enable-background:accumulate"
     id="path891"
     d="M 0,2 H 60 V 33 L 34,64 H 0 Z"
     inkscape:connector-curvature="0" />
  <path
     inkscape:connector-curvature="0"
     d="M 0,2 H 60 V 33 L 34,64 H 0 Z"
     id="path879"
     style="color:#000000;display:inline;overflow:visible;visibility:visible;fill:url(#linearGradient881);fill-opacity:1;fill-rule:nonzero;stroke:none;stroke-width:1;marker:none;enable-background:accumulate" />
  <path
     inkscape:connector-curvature="0"
     d="M 0,2 60,2 60,33 34,64 0,64 z"
     id="path3982"
     style="color:#000000;fill:url(#radialGradient911);fill-opacity:1;fill-rule:nonzero;stroke:none;stroke-width:1;marker:none;visibility:visible;display:inline;overflow:visible;enable-background:accumulate" />
  <path
     inkscape:connector-curvature="0"
     d="M 34,64 60,33 c -2.328567,2.776369 -4.36141,3 -11,3 H 37 v 15 c 0,6.644068 0.04437,9.370179 -3,13 z"
     id="path4278"
     style="fill:url(#linearGradient880);fill-opacity:1;fill-rule:nonzero;font-variant-east_asian:normal;opacity:1;vector-effect:none;stroke-width:1;stroke-linecap:butt;stroke-linejoin:miter;stroke-miterlimit:4;stroke-dasharray:none;stroke-dashoffset:0;stroke-opacity:1" />
  <path
     style="color:#000000;fill:#6d808c;fill-opacity:1;fill-rule:nonzero;stroke:none;stroke-width:1;marker:none;visibility:visible;display:inline;overflow:visible;enable-background:accumulate"
     d="M 13.5,7 C 8.817464,7 5,10.817458 5,15.5 l 2.03125,0 c 0,-3.601661 2.867093,-6.46875 6.46875,-6.46875 3.601657,0 6.46875,2.867089 6.46875,6.46875 0,3.601661 -2.867093,6.5 -6.46875,6.5 -0.647354,0 -1.287471,-0.09104 -1.90625,-0.28125 L 11,23.625 C 11.809167,23.873734 12.653465,24 13.5,24 18.182536,24 22,20.182542 22,15.5 22,10.817458 18.182536,7 13.5,7 z m 0,19 c -1.104569,0 -2,0.895431 -2,2 0,1.104569 0.895431,2 2,2 1.104569,0 2,-0.895431 2,-2 0,-1.104569 -0.895431,-2 -2,-2 z"
     id="path3882"
     inkscape:connector-curvature="0" />
</svg>

<?xml version="1.0" encoding="UTF-8"?>
<!-- Created with Inkscape (http://www.inkscape.org/) -->
<svg width="64" height="64" version="1.1" xmlns="http://www.w3.org/2000/svg" xmlns:cc="http://creativecommons.org/ns#" xmlns:dc="http://purl.org/dc/elements/1.1/" xmlns:rdf="http://www.w3.org/1999/02/22-rdf-syntax-ns#" xmlns:xlink="http://www.w3.org/1999/xlink">
	<defs>
		<linearGradient id="e" x1="48.92" x2="32.67" y1="46.21" y2="24" gradientUnits="userSpaceOnUse">
			<stop stop-color="#ffffff" stop-opacity=".5298" offset="0"/>
			<stop stop-color="#ffffff" stop-opacity="0" offset="1"/>
		</linearGradient>
		<radialGradient id="b" cx="46.87" cy="36.89" r="14.16" gradientTransform="matrix(1.44 0 0 2.118 -19.19 -35.79)" gradientUnits="userSpaceOnUse">
			<stop stop-color="#222e33" stop-opacity=".2851" offset="0"/>
			<stop stop-color="#222e33" stop-opacity=".1216" offset="1"/>
		</radialGradient>
		<linearGradient id="d" x1="82.74" x2="71" y1="79.42" y2="69" gradientTransform="translate(-34,-33)" gradientUnits="userSpaceOnUse">
			<stop stop-color="#c1cad0" offset="0"/>
			<stop stop-color="#bcc7cc" offset=".2523"/>
			<stop stop-color="#d1dbe2" offset="1"/>
		</linearGradient>
		<radialGradient id="a" cx="20.34" cy="28.54" r="30" gradientTransform="matrix(1.181 0 0 1.22 -5.424 -7.265)" gradientUnits="userSpaceOnUse">
			<stop stop-color="#1b4757" stop-opacity=".06802" offset="0"/>
			<stop stop-color="#0a4f68" stop-opacity=".01013" offset="1"/>
		</radialGradient>
		<linearGradient id="c" x1="37" x2="48.96" y1="36" y2="46.16" gradientUnits="userSpaceOnUse">
			<stop stop-color="#ffffff" stop-opacity=".006555" offset="0"/>
			<stop stop-color="#fefefe" stop-opacity=".4545" offset=".8005"/>
			<stop stop-color="#feffff" offset="1"/>
		</linearGradient>
	</defs>
	<metadata>
		<rdf:RDF>
			<cc:Work rdf:about="">
				<dc:format>image/svg+xml</dc:format>
				<dc:type rdf:resource="http://purl.org/dc/dcmitype/StillImage"/>
				<dc:title/>
			</cc:Work>
		</rdf:RDF>
	</metadata>
	<path d="m4 0h60v62h-60z" fill="#c8d4dc"/>
	<path d="m60 2v31l-24.32 29h28.32v-25-31l-4-4z" fill="url(#b)"/>
	<path d="m0 2h60v31l-26 31h-34z" fill="url(#e)"/>
	<path d="m0 2h60v31l-26 31h-34z" color="#000000" fill="#edf0f2"/>
	<path d="m0 2h60v31l-26 31h-34z" color="#000000" fill="url(#c)"/>
	<path d="m0 2h60v31l-26 31h-34z" color="#000000" fill="url(#a)"/>
	<path d="m34 64 26-31c-2.329 2.776-4.361 3-11 3h-12v15c0 6.644 0.04437 9.37-3 13z" fill="url(#d)" style="font-variant-east_asian:normal"/>
	<path d="m13.5 7c-4.683 0-8.5 3.817-8.5 8.5h2.031c0-3.602 2.867-6.469 6.469-6.469s6.469 2.867 6.469 6.469-2.867 6.5-6.469 6.5c-0.6474 0-1.287-0.09104-1.906-0.2812l-0.5938 1.906c0.8092 0.2487 1.653 0.375 2.5 0.375 4.683 0 8.5-3.817 8.5-8.5s-3.817-8.5-8.5-8.5zm0 19c-1.105 0-2 0.8954-2 2s0.8954 2 2 2 2-0.8954 2-2-0.8954-2-2-2z" color="#000000" fill="#6d808c"/>
</svg>
